X: 39958
T: Thrashing Of The Oats, The
R: polka
M: 2/4
K: Gmajor
|:G2 AB|c/B/A dB|G2 AB|cA FA|
G2 AB|cA de|fd cA|1 BG GD:|2 BG G2||
g2 ag|f(d d)e|f(d d)e|fd ef|
g2 ag|f(d d)e|fd cA|BG G2|
g2 ag|f(d d)e|fd ge|fd ef|
g2 ag|f(d d)e|fd cA|BG GA||
|:B2 AG|A(d d)e|fd cA|B(G G)A|
Bd/B/ AG|A(d d)e|fd cA|1 (G2 G)A:|2 G3 D||

